X:1
T:Title
%%score { 1 | 2 }
L:1/8
M:2/4
K:Ab
V:1 treble nm="Grand Piano"
V:2 bass 
V:1
 z2 z[Q:1/4=90] E | [Ec][DB] [CA][DF] | [CE][A,C] [CE]>[CE] | DE G>E |[M:3/8] [CA]3 | %5
[M:1/8] [E,E] |[M:2/4] [Ec][DB] [CA][DF] | [CE][A,C] [CE]>[CE] | DE G>E |[M:3/8] [CA]3 | %10
[M:2/4] [ce]2 [Ac]>[Bd] | [ce]2 [Ac]>E | (3[A,EA][A,EA][A,EA] (3[A,EA][EGB][EAc] | [GB]4 | %14
 [ce]2 [Ac]>[Bd] | [ce]2 [Ac]>[EA] | (3[Ac][Ac][Ac] (3[DGB][DGB][DGB] |[M:3/8] [CEA]3 |] %18
V:2
 z2 z E, | [A,,A,][A,,A,] [A,,E,][A,,A,] | [A,,A,][A,,E,] [A,,A,]>[A,,A,] | %3
 [E,G,][E,B,D] [E,B,D]>[E,B,D] |[M:3/8] [A,,E,A,]3 |[M:1/8] z | %6
[M:2/4] [A,,A,][A,,A,] [A,,E,][A,,A,] | [A,,A,][A,,E,] [A,,A,]>[A,,A,] | %8
 [E,G,][E,B,D] [E,B,D]>[E,B,D] |[M:3/8] [A,,E,A,]3 |[M:2/4] [A,,A,]2 [A,,A,]>[A,,A,] | %11
 [A,,A,]2 [A,,E,]>E, | (3C,C,C, (3C,B,,A,, | [E,E]4 | [A,,A,]2 [A,,A,]>[A,,A,] | %15
 [A,,A,]2 [A,,A,]>[A,C] | (3[E,E][E,E][E,E] (3E,E,E, |[M:3/8] A,,3 |] %18

